src/assets/svg/no-bg-white.svg

<svg fill="none" height="70" viewBox="0 0 68 70" width="68" xmlns="http://www.w3.org/2000/svg"><g stroke="#fff" stroke-miterlimit="10"><path d="m29.1523 45.7324c3.0808 0 5.5782-2.5708 5.5782-5.7422 0-3.1713-2.4974-5.7422-5.5782-5.7422-3.0807 0-5.5781 2.5709-5.5781 5.7422 0 3.1714 2.4974 5.7422 5.5781 5.7422z" stroke-width="1.5"/><path d="m22.5117 53.6621c3.6675 0 6.6406-3.0605 6.6406-6.8359s-2.9731-6.836-6.6406-6.836-6.6406 3.0606-6.6406 6.836 2.9731 6.8359 6.6406 6.8359z" stroke-width="2"/><path d="m15.207 63.6426c4.9879 0 9.0313-4.1624 9.0313-9.2969s-4.0434-9.2969-9.0313-9.2969c-4.9878 0-9.03122 4.1624-9.03122 9.2969s4.04342 9.2969 9.03122 9.2969z" stroke-width="2.5"/></g><path d="m30.5827 38.8473.7796.8025.7889.8121.4795-.3773c.2722-.2024.5073-.3486.5352-.3186.0186.0192.5352 1.1498 1.1276 2.5129.6016 1.3535 1.1462 2.5526 1.2205 2.6483.085.1257.2723.1066.611-.0875.7982-.4348 1.1926-.8996 1.2391-1.4698.0186-.2707.348-2.3884.7225-4.7086.676-4.1179.6946-4.215 1.1555-4.688.2722-.2803.4794-.4157.4701-.309-.0093.0875-.3479 2.2326-.761 4.766l-.7517 4.6019 1.287.0096c1.0146 0 1.3334-.0574 1.5592-.2898.1501-.1545 2.1781-4.602 4.4983-9.8711l4.2168-9.5799 1.024-1.2277c1.1834-1.4315 1.3056-1.6912.9204-2.0877-.2444-.2516-.2351-.3377.1315-1.0828.348-.6864.7132-1.1211 2.7983-3.3455 1.9909-2.1069 2.6483-2.8999 3.8317-4.5432.7889-1.10197 1.5778-2.2422 1.7558-2.54298.1779-.30078.7225-1.01446 1.2019-1.58594l.8739-1.03496-.7331.73418c-.4037.39648-1.1076.9666-1.5499 1.26601-2.5168 1.68164-4.6206 3.44119-7.1095 5.92679-2.1595 2.1465-2.5832 2.5238-3.2499 2.8806-.7225.3774-.8075.387-1.0519.1354-.3851-.3965-.6388-.2707-2.028.9474l-1.1927 1.0541-9.3061 4.3409c-5.1186 2.3884-9.4377 4.4761-9.5891 4.6306-.2258.2325-.2816.5606-.2816 1.6051l.0093 1.3248 4.4705-.7738c2.461-.4252 4.5448-.7738 4.6298-.7834.1036-.0096-.0278.2023-.3001.484-.4595.473-.5538.4935-4.5542 1.1894-2.2538.3869-4.311.7246-4.574.7438-.5538.0478-1.0054.4539-1.4277 1.2756-.1873.3486-.2072.5414-.085.6289.0942.0779 1.259.6384 2.5725 1.2564 1.3242.6084 2.4225 1.1402 2.4411 1.1608.0279.0287-.1129.2707-.3094.5509l-.3666.4936.7889.8121.7796.8025" fill="#b3b3b3"/></svg>

<svg xmlns="http://www.w3.org/2000/svg" width="68" height="70" fill="none" viewBox="0 0 68 70"><g id="no bg 1"><path id="Vector" stroke="#fff" stroke-miterlimit="10" stroke-width="1.5" d="M29.1523 45.7324C32.2331 45.7324 34.7305 43.1616 34.7305 39.9902C34.7305 36.8189 32.2331 34.248 29.1523 34.248C26.0716 34.248 23.5742 36.8189 23.5742 39.9902C23.5742 43.1616 26.0716 45.7324 29.1523 45.7324Z"/><path id="Vector_2" stroke="#fff" stroke-miterlimit="10" stroke-width="2" d="M22.5117 53.6621C26.1792 53.6621 29.1523 50.6016 29.1523 46.8262C29.1523 43.0508 26.1792 39.9902 22.5117 39.9902C18.8442 39.9902 15.8711 43.0508 15.8711 46.8262C15.8711 50.6016 18.8442 53.6621 22.5117 53.6621Z"/><path id="Vector_3" stroke="#fff" stroke-miterlimit="10" stroke-width="2.5" d="M15.207 63.6426C20.1949 63.6426 24.2383 59.4802 24.2383 54.3457C24.2383 49.2112 20.1949 45.0488 15.207 45.0488C10.2192 45.0488 6.17578 49.2112 6.17578 54.3457C6.17578 59.4802 10.2192 63.6426 15.207 63.6426Z"/><path id="Vector_4" fill="#B3B3B3" d="M30.5827 38.8473L31.3623 39.6498L32.1512 40.4619L32.6307 40.0846C32.9029 39.8822 33.138 39.736 33.1659 39.766C33.1845 39.7852 33.7011 40.9158 34.2935 42.2789C34.8951 43.6324 35.4397 44.8315 35.514 44.9272C35.599 45.0529 35.7863 45.0338 36.125 44.8397C36.9232 44.4049 37.3176 43.9401 37.3641 43.3699C37.3827 43.0992 37.7121 40.9815 38.0866 38.6613C38.7626 34.5434 38.7812 34.4463 39.2421 33.9733C39.5143 33.693 39.7215 33.5576 39.7122 33.6643C39.7029 33.7518 39.3643 35.8969 38.9512 38.4303L38.1995 43.0322L39.4865 43.0418C40.5011 43.0418 40.8199 42.9844 41.0457 42.752C41.1958 42.5975 43.2238 38.15 45.544 32.8809L49.7608 23.301L50.7848 22.0733C51.9682 20.6418 52.0904 20.3821 51.7052 19.9856C51.4608 19.734 51.4701 19.6479 51.8367 18.9028C52.1847 18.2164 52.5499 17.7817 54.635 15.5573C56.6259 13.4504 57.2833 12.6574 58.4667 11.0141C59.2556 9.91213 60.0445 8.7719 60.2225 8.47112C60.4004 8.17034 60.945 7.45666 61.4244 6.88518L62.2983 5.85022L61.5652 6.5844C61.1615 6.98088 60.4576 7.551 60.0153 7.85041C57.4985 9.53205 55.3947 11.2916 52.9058 13.7772C50.7463 15.9237 50.3226 16.301 49.6559 16.6578C48.9334 17.0352 48.8484 17.0448 48.604 16.7932C48.2189 16.3967 47.9652 16.5225 46.576 17.7406L45.3833 18.7947L36.0772 23.1356C30.9586 25.524 26.6395 27.6117 26.4881 27.7662C26.2623 27.9987 26.2065 28.3268 26.2065 29.3713L26.2158 30.6961L30.6863 29.9223C33.1473 29.4971 35.2311 29.1485 35.3161 29.1389C35.4197 29.1293 35.2883 29.3412 35.016 29.6229C34.5565 30.0959 34.4622 30.1164 30.4618 30.8123C28.208 31.1992 26.1508 31.5369 25.8878 31.5561C25.334 31.6039 24.8824 32.01 24.4601 32.8317C24.2728 33.1803 24.2529 33.3731 24.3751 33.4606C24.4693 33.5385 25.6341 34.099 26.9476 34.717C28.2718 35.3254 29.3701 35.8572 29.3887 35.8778C29.4166 35.9065 29.2758 36.1485 29.0793 36.4287L28.7127 36.9223L29.5016 37.7344L30.2812 38.5369"/></g></svg>
